X:29
T:Mrs Mc.Leod. MBe.29
S:Matthew Betham MS, Towcett Cumbria, 1815
O:England;Cumbria;Towcett
Z:VMP – Hugh Taylor, 2012
M:C
L:1/8
Q:1/2=100
R:.Reel
K:G
B|G2 g2 edeg|B>BB>A B2 c>A| G2 g2 edeg|A>AA>G A2 AB|
G2 g2 edeg|A.AA>G B2 z “^cr in MS”d|efed e2 de/f/|g2 dB (c2 c):|
|:B”^barline added”|GGBG dBBe|B>BB>A B2 Bg|GGBG dBBd|A>AA>G A3 B|
GGBG dBBg|B>BB>A B2 cd|efed e2 de/f/|g2 dB (A2 A):|

